dist/img/svg/business.svg

<svg width="38" height="43" viewBox="0 0 38 43" fill="none" xmlns="http://www.w3.org/2000/svg">
<path d="M22.4476 25.4087H2.59049V3.90867H22.4476V12.1278L24.1754 12.5451V3.63779C24.6905 3.29917 25.0381 2.67595 25.0381 1.95479C25.0381 0.875814 24.2652 0 23.3111 0H1.72699C0.772942 0 0 0.875814 0 1.95479C0 2.67686 0.349279 3.29917 0.863495 3.63779V26.3861C0.863495 26.9251 1.24997 27.3635 1.72618 27.3635H7.04703L3.94233 40.54C3.69735 41.5824 4.24471 42.655 5.16642 42.9332C5.31599 42.978 5.46557 43 5.61272 43C6.37515 43 7.07452 42.4225 7.28069 41.5485L10.6231 27.3635H14.415L17.7574 41.5485C17.9636 42.4225 18.6614 43 19.4246 43C19.5726 43 19.7213 42.9789 19.8717 42.9332C20.7934 42.655 21.34 41.5824 21.0958 40.5409L17.9911 27.3644H23.312C23.789 27.3644 24.1746 26.926 24.1746 26.387V20.5418L22.4468 20.1236V25.4087H22.4476Z" fill="#368CBF"/>
<path d="M29.7921 14.179C31.4836 14.179 32.8588 12.625 32.8588 10.7096C32.8588 8.79229 31.4836 7.23926 29.7921 7.23926C28.1015 7.23926 26.7271 8.79138 26.7271 10.7096C26.7271 12.625 28.1015 14.179 29.7921 14.179Z" fill="#368CBF"/>
<path d="M37.8828 25.6863L34.7118 16.3956C34.4571 15.6424 33.816 15.1455 33.1029 15.1455H31.4179C30.9441 15.1455 30.5302 15.3797 30.2213 15.7321L31.025 22.4119L29.792 23.5952L28.5606 22.4119L29.3643 15.7321C29.053 15.3797 28.6399 15.1455 28.1661 15.1455H26.6647L16.7652 12.7514C15.833 12.5263 14.9153 13.1998 14.7156 14.255C14.5167 15.3111 15.111 16.3498 16.044 16.5749L26.1205 19.0111C26.2248 19.0367 26.3324 19.0505 26.4391 19.0532V28.0941L25.7785 40.9293C25.7252 42.0065 26.4504 42.9308 27.4036 42.994C27.4368 42.9967 27.4716 42.9976 27.5047 42.9976C28.4127 42.9976 29.1727 42.1959 29.2277 41.1563L29.7944 30.1478L30.3604 41.1563C30.4138 42.1959 31.1762 42.9976 32.0841 42.9976C32.1173 42.9976 32.1521 42.9967 32.1852 42.994C33.1376 42.9308 33.8637 42.0065 33.8087 40.9293L33.149 28.0941V22.6507L34.6657 27.0948C35.0094 28.1033 36.0111 28.6011 36.8997 28.214C37.785 27.8251 38.2273 26.6939 37.8828 25.6863Z" fill="#368CBF"/>
<path d="M3.88574 13.9276V22.2346C3.88574 22.7745 4.27221 23.212 4.74843 23.212C5.22626 23.212 5.61192 22.7736 5.61192 22.2346V13.9276C5.61192 13.3886 5.22545 12.9502 4.74843 12.9502C4.2714 12.9502 3.88574 13.3876 3.88574 13.9276Z" fill="#368CBF"/>
<path d="M7.77002 7.08482V22.2327C7.77002 22.7735 8.15649 23.21 8.63352 23.21C9.11054 23.21 9.4962 22.7726 9.4962 22.2327V7.08482C9.4962 6.54487 9.10973 6.10742 8.63352 6.10742C8.15649 6.10742 7.77002 6.54487 7.77002 7.08482Z" fill="#368CBF"/>
<path d="M11.6558 10.993V22.2331C11.6558 22.774 12.0422 23.2105 12.5184 23.2105C12.9963 23.2105 13.3819 22.773 13.3819 22.2331V10.993C13.3819 10.4531 12.9955 10.0156 12.5184 10.0156C12.0422 10.0156 11.6558 10.4531 11.6558 10.993Z" fill="#368CBF"/>
</svg>

<svg width="38" height="43" viewBox="0 0 38 43" fill="none" xmlns="http://www.w3.org/2000/svg"><path d="M22.448 25.409H2.59v-21.5h19.858v8.219l1.727.417V3.638c.515-.339.863-.962.863-1.683C25.038.875 24.265 0 23.311 0H1.727C.773 0 0 .876 0 1.955c0 .722.35 1.344.863 1.683v22.748c0 .54.387.977.863.977h5.321L3.942 40.54c-.245 1.042.303 2.115 1.224 2.393.15.045.3.067.447.067.762 0 1.462-.578 1.668-1.452l3.342-14.185h3.792l3.342 14.185c.207.874.904 1.452 1.668 1.452.148 0 .296-.021.447-.067.921-.278 1.468-1.35 1.224-2.392L17.99 27.364h5.321c.477 0 .863-.438.863-.977v-5.845l-1.728-.418v5.285zm7.344-11.23c1.692 0 3.067-1.554 3.067-3.47 0-1.917-1.375-3.47-3.067-3.47-1.69 0-3.065 1.552-3.065 3.47 0 1.916 1.375 3.47 3.065 3.47z" fill="#368CBF"/><path d="M37.883 25.686l-3.171-9.29c-.255-.754-.896-1.25-1.61-1.25h-1.684c-.474 0-.888.234-1.197.586l.804 6.68-1.233 1.183-1.231-1.183.803-6.68c-.311-.352-.724-.586-1.198-.586h-1.501l-9.9-2.395c-.932-.225-1.85.449-2.05 1.504-.198 1.056.396 2.095 1.329 2.32L26.12 19.01a1.5 1.5 0 00.32.042v9.041l-.662 12.835c-.053 1.078.672 2.002 1.626 2.065.033.003.068.004.1.004.909 0 1.669-.802 1.724-1.842l.566-11.008.566 11.008c.054 1.04.816 1.842 1.724 1.842.033 0 .068-.001.101-.004.953-.063 1.679-.987 1.624-2.065l-.66-12.835V22.65l1.517 4.444c.343 1.008 1.345 1.506 2.234 1.119.885-.389 1.327-1.52.983-2.528zM3.886 13.928v8.307c0 .54.386.977.862.977.478 0 .864-.438.864-.977v-8.307c0-.54-.387-.978-.864-.978s-.862.438-.862.978zM7.77 7.085v15.148c0 .54.386.977.864.977.477 0 .862-.437.862-.977V7.085c0-.54-.386-.978-.862-.978-.478 0-.864.438-.864.978zm3.886 3.908v11.24c0 .541.386.977.862.977.478 0 .864-.437.864-.977v-11.24c0-.54-.386-.977-.864-.977-.476 0-.862.437-.862.977z" fill="#368CBF"/></svg>
